svgs/thin/bowl-chopsticks.svg

<svg xmlns="http://www.w3.org/2000/svg" viewBox="0 0 512 512"><!--! Font Awesome Pro 6.3.0 by @fontawesome - https://fontawesome.com License - https://fontawesome.com/license (Commercial License) Copyright 2023 Fonticons, Inc. --><path d="M9.641 119.8C5.317 120.7 1.076 117.1 .1699 113.6C-.7366 109.3 2.034 105.1 6.358 104.2L502.4 .1718C506.7-.7347 510.9 2.036 511.8 6.36C512.7 10.68 509.1 14.92 505.6 15.83L9.641 119.8zM511.1 127.5C512.3 131.9 508.9 135.7 504.5 135.1L8.515 167.1C4.106 168.3 .3005 164.9 .016 160.5C-.2685 156.1 3.075 152.3 7.484 152L503.5 120C507.9 119.7 511.7 123.1 511.1 127.5zM1.993 257.9C.9114 239.5 15.53 224 33.94 224H478.1C496.5 224 511.1 239.5 510 257.9L508.4 285.2C503.5 368.4 453.6 438.9 383.1 473.3C378.8 495.4 359.3 512 336 512H175.1C152.7 512 133.2 495.4 128.9 473.3C58.44 438.9 8.495 368.4 3.597 285.2L1.993 257.9zM135.9 458.9C140.4 461.1 143.6 465.3 144.6 470.2C147.5 484.9 160.5 496 175.1 496H336C351.5 496 364.5 484.9 367.4 470.2C368.4 465.3 371.6 461.1 376.1 458.9C441.5 426.9 487.9 361.5 492.4 284.2L494 256.9C494.6 247.8 487.3 240 478.1 240H33.94C24.73 240 17.42 247.8 17.96 256.9L19.57 284.2C24.12 361.5 70.47 426.9 135.9 458.9V458.9z"/></svg>

<svg xmlns="http://www.w3.org/2000/svg" viewBox="0 0 512 512"><!--! Font Awesome Pro 6.4.0 by @fontawesome - https://fontawesome.com License - https://fontawesome.com/license (Commercial License) Copyright 2023 Fonticons, Inc. --><path d="M505.6 15.8l-496 104c-4.3 .9-8.6-1.9-9.5-6.2s1.9-8.6 6.2-9.5l496-104c4.3-.9 8.6 1.9 9.5 6.2s-1.9 8.6-6.2 9.5zM512 127.5c.3 4.4-3.1 8.2-7.5 8.5L8.5 168c-4.4 .3-8.2-3.1-8.5-7.5s3.1-8.2 7.5-8.5l496-32c4.4-.3 8.2 3.1 8.5 7.5zM135.9 458.9c4.5 2.2 7.7 6.4 8.7 11.3c2.9 14.7 15.9 25.8 31.4 25.8H336c15.5 0 28.5-11.1 31.4-25.8c1-4.9 4.2-9.1 8.7-11.3c65.5-32 111.8-97.4 116.4-174.7l1.6-27.3c.5-9.2-6.8-16.9-16-16.9H33.9c-9.2 0-16.5 7.7-16 16.9l1.6 27.3c4.5 77.3 50.9 142.7 116.4 174.7zM2 257.9C.9 239.5 15.5 224 33.9 224H478.1c18.4 0 33 15.5 31.9 33.9l-1.6 27.3c-4.9 83.3-54.8 153.7-125.3 188.2C378.8 495.4 359.3 512 336 512H176c-23.3 0-42.8-16.6-47.1-38.7C58.4 438.9 8.5 368.4 3.6 285.2L2 257.9z"/></svg>
